X: 51
T:The Bath
M:C|
L:1/8
Q:120
K:GMix
g3d g3d|gfed g2B2|c2A2 d2d2|A4A4|GGGG GABc|ddde d2B2|cdec d3c|B8||

